X: 124006
Q: "Reel."
M: C
L: 1/8
K: A
uE |\
dfdB cecA | dcBA GABc |\
dfdB cecA | cBAG A2-A |]
ue |\
aAaA aAce | aAgA fAeA |\
dfdB cecA | dcBA GABd |\
(3(cBA) (eA) fAeA | fgaf ecAc |\
decd BcAB | FAGB A2-A |]


